X:644
T:Bobbing-a-Joe
O:england
M:6/8
C:
S:Bacon (CJS MSS)
N:
A:Wheatley
R:Jig
%P:A.(AB)$^{2n}$.A
P:A.(AB)2n.A
%:
%:
K:A
I:speed 300
P:A
|:\
cdc e2 f | edc BGE  | cdc e2 f | e3 B A2 :|\
P:B
|: cef B3   | cef B3   | cdc e2 f | e3 B A2 :|
